X: 2
T: Le Printemps
C: Andr\'e Brunet
M: C|
L: 1/8
R: reel
K: D
"A"|:\
"D"D2FD EDFA | "G"dfec "A"dBAF |\
"D"(3DDD FA defd | "A"gece "D"fd d2 ||\
"G"B3d "D/F#"ABAF | "A/E"GFEG "D"FD D2 |
"D"dcdf "G"edcA |1 "A"Bcde "D"fd d2 :|\
[2 "A"Bcde "D/A#"fd d2 "^B"|: "Bm"B3B- BcdB |\
"A"AAEA CEA,E | "Bm"B2FB BcdB |
"A"Bcec fcec || "Bm"BBFB BcdB |\
"A"AAEA CEA,E | "G"B3d "D"ABAF |\
"A/E"GFEG "D"FD D2 :|["Trans""A/E"GFEF"D"D2z2 |]


